X: 201
T: Jennie's Waltz
T: Waltz, G
C: Stanley MacNeil
L: 1/16
M: 3/4
K: G
|: B,2A,2| G,4B,4D4| B8A2B2| c8B2A2| E12| D4F4A4| f8e4| d4e4d4| B8B,2A,2| 
           G,4B,4D4| B8A2B2| c8B2A2| E12| D4F4A4| f8e4| d4c4F4| G12:| 
|: g8f2g2| d8c2B2| A8B2A2| E12| D4F4A4| f8e4| d4e4d4| B12|
   g8f2g2| d8c2B2| A8B2A2| E12| D4F4A4| f8e4| d4c4F4| G12:| 
S: Author's transcription
D: Karen Beaton, Route 19, KLB-2000
